packages/icons/src/SVG/replay-30.svg

<svg width="12" height="12" viewBox="0 0 12 12" >
<path d="M7.97886 2C10.2278 2 12.0395 3.83469 11.9993 6.07142C11.9602 8.25237 10.1717 10 7.97886 10H4V12L0 9.5L4 7V9H7.97886C9.62347 9 10.9649 7.68928 10.9942 6.05356C11.0243 4.37602 9.66553 3 7.97886 3V2Z" />
<path d="M3.37598 1.39453C3.37598 1.62012 3.3304 1.81608 3.23926 1.98242C3.14811 2.14876 3.02279 2.28548 2.86328 2.39258C2.70605 2.4974 2.52376 2.57259 2.31641 2.61816V2.64209C2.71517 2.69222 3.01595 2.81755 3.21875 3.01807C3.42383 3.21859 3.52637 3.48405 3.52637 3.81445C3.52637 4.10384 3.45687 4.36247 3.31787 4.59033C3.17887 4.81592 2.96582 4.99365 2.67871 5.12354C2.3916 5.25342 2.02246 5.31836 1.57129 5.31836C1.30013 5.31836 1.04834 5.29671 0.815918 5.25342C0.585775 5.21012 0.367025 5.14062 0.159668 5.04492V4.33057C0.371582 4.43538 0.597168 4.51628 0.836426 4.57324C1.07568 4.63021 1.30241 4.65869 1.5166 4.65869C1.93359 4.65869 2.23096 4.58122 2.40869 4.42627C2.58643 4.26904 2.67529 4.05257 2.67529 3.77686C2.67529 3.59912 2.62858 3.45329 2.53516 3.33936C2.44401 3.22542 2.30159 3.13997 2.10791 3.08301C1.9165 3.02604 1.66927 2.99756 1.36621 2.99756H0.925293V2.35156H1.36963C1.65902 2.35156 1.89144 2.31738 2.06689 2.24902C2.24235 2.17839 2.36882 2.08154 2.44629 1.9585C2.52604 1.83545 2.56592 1.69189 2.56592 1.52783C2.56592 1.31364 2.49642 1.1473 2.35742 1.02881C2.21842 0.90804 2.01221 0.847656 1.73877 0.847656C1.57015 0.847656 1.41634 0.867025 1.27734 0.905762C1.14062 0.944499 1.01416 0.99349 0.897949 1.05273C0.781738 1.11198 0.671224 1.17578 0.566406 1.24414L0.180176 0.687012C0.369303 0.545736 0.594889 0.426107 0.856934 0.328125C1.11898 0.230143 1.42432 0.181152 1.77295 0.181152C2.28564 0.181152 2.68099 0.291667 2.95898 0.512695C3.23698 0.731445 3.37598 1.02539 3.37598 1.39453Z" />
<path d="M7.32324 2.74805C7.32324 3.15137 7.29134 3.51253 7.22754 3.83154C7.16602 4.14827 7.06803 4.41715 6.93359 4.63818C6.79915 4.85921 6.6237 5.02783 6.40723 5.14404C6.19076 5.26025 5.92871 5.31836 5.62109 5.31836C5.236 5.31836 4.91813 5.21696 4.66748 5.01416C4.41683 4.80908 4.23112 4.51514 4.11035 4.13232C3.98958 3.74723 3.9292 3.28581 3.9292 2.74805C3.9292 2.21029 3.98389 1.75 4.09326 1.36719C4.20492 0.982096 4.38493 0.687012 4.6333 0.481934C4.88167 0.276855 5.21094 0.174316 5.62109 0.174316C6.00846 0.174316 6.32747 0.276855 6.57812 0.481934C6.83105 0.684733 7.0179 0.978678 7.13867 1.36377C7.26172 1.74658 7.32324 2.20801 7.32324 2.74805ZM4.73926 2.74805C4.73926 3.1696 4.7666 3.52165 4.82129 3.8042C4.87826 4.08675 4.97168 4.29867 5.10156 4.43994C5.23145 4.57894 5.40462 4.64844 5.62109 4.64844C5.83756 4.64844 6.01074 4.57894 6.14062 4.43994C6.27051 4.30094 6.36393 4.09017 6.4209 3.80762C6.48014 3.52507 6.50977 3.17188 6.50977 2.74805C6.50977 2.32878 6.48128 1.97786 6.42432 1.69531C6.36735 1.41276 6.27393 1.20085 6.14404 1.05957C6.01416 0.916016 5.83984 0.844238 5.62109 0.844238C5.40234 0.844238 5.22803 0.916016 5.09814 1.05957C4.97054 1.20085 4.87826 1.41276 4.82129 1.69531C4.7666 1.97786 4.73926 2.32878 4.73926 2.74805Z" />
</svg>

<!-- Generated by IcoMoon.io -->
<svg version="1.1" xmlns="http://www.w3.org/2000/svg" width="12" height="12" viewBox="0 0 12 12">
<title>replay-30</title>
<path fill="#4c505b" d="M7.979 2c2.249 0 4.061 1.835 4.020 4.071-0.039 2.181-1.828 3.929-4.020 3.929h-3.979v2l-4-2.5 4-2.5v2h3.979c1.645 0 2.986-1.311 3.015-2.946 0.030-1.678-1.329-3.054-3.015-3.054v-1z"></path>
<path fill="#4c505b" d="M3.376 1.395c0 0.226-0.046 0.422-0.137 0.588s-0.216 0.303-0.376 0.41c-0.157 0.105-0.34 0.18-0.547 0.226v0.024c0.399 0.050 0.7 0.175 0.902 0.376 0.205 0.201 0.308 0.466 0.308 0.796 0 0.289-0.070 0.548-0.209 0.776-0.139 0.226-0.352 0.403-0.639 0.533s-0.656 0.195-1.107 0.195c-0.271 0-0.523-0.022-0.755-0.065-0.23-0.043-0.449-0.113-0.656-0.208v-0.714c0.212 0.105 0.437 0.186 0.677 0.243s0.466 0.085 0.68 0.085c0.417 0 0.714-0.077 0.892-0.232 0.178-0.157 0.267-0.374 0.267-0.649 0-0.178-0.047-0.324-0.14-0.437-0.091-0.114-0.234-0.199-0.427-0.256-0.191-0.057-0.439-0.085-0.742-0.085h-0.441v-0.646h0.444c0.289 0 0.522-0.034 0.697-0.103 0.175-0.071 0.302-0.167 0.379-0.291 0.080-0.123 0.12-0.267 0.12-0.431 0-0.214-0.070-0.381-0.208-0.499-0.139-0.121-0.345-0.181-0.619-0.181-0.169 0-0.322 0.019-0.461 0.058-0.137 0.039-0.263 0.088-0.379 0.147s-0.227 0.123-0.332 0.191l-0.386-0.557c0.189-0.141 0.415-0.261 0.677-0.359s0.567-0.147 0.916-0.147c0.513 0 0.908 0.111 1.186 0.332 0.278 0.219 0.417 0.513 0.417 0.882z"></path>
<path fill="#4c505b" d="M7.323 2.748c0 0.403-0.032 0.764-0.096 1.083-0.062 0.317-0.16 0.586-0.294 0.807s-0.31 0.39-0.526 0.506c-0.216 0.116-0.479 0.174-0.786 0.174-0.385 0-0.703-0.101-0.954-0.304-0.251-0.205-0.436-0.499-0.557-0.882-0.121-0.385-0.181-0.847-0.181-1.384s0.055-0.998 0.164-1.381c0.112-0.385 0.292-0.68 0.54-0.885s0.578-0.308 0.988-0.308c0.387 0 0.706 0.103 0.957 0.308 0.253 0.203 0.44 0.497 0.561 0.882 0.123 0.383 0.185 0.844 0.185 1.384zM4.739 2.748c0 0.422 0.027 0.774 0.082 1.056 0.057 0.283 0.15 0.494 0.28 0.636 0.13 0.139 0.303 0.209 0.52 0.209s0.39-0.070 0.52-0.209c0.13-0.139 0.223-0.35 0.28-0.632 0.059-0.283 0.089-0.636 0.089-1.060 0-0.419-0.028-0.77-0.085-1.053s-0.15-0.494-0.28-0.636c-0.13-0.144-0.304-0.215-0.523-0.215s-0.393 0.072-0.523 0.215c-0.128 0.141-0.22 0.353-0.277 0.636-0.055 0.283-0.082 0.633-0.082 1.053z"></path>
</svg>
